img/icon-kinghost.svg

<svg width="49" height="49" viewBox="0 0 49 49" fill="none" xmlns="http://www.w3.org/2000/svg">
<path d="M12.8421 25.0521C12.6787 23.3364 12.5153 21.6002 12.3723 19.8845C12.3315 19.476 12.1477 18.8836 12.7196 18.7611C13.3528 18.5977 13.4753 19.2104 13.6183 19.6598C14.1289 21.3551 14.5987 23.0504 15.4157 24.6436C15.7221 25.2359 16.1102 25.7466 16.58 26.1755C17.8055 27.2989 19.6438 27.1559 20.5833 25.7874C21.768 24.0717 22.1357 22.0496 22.6463 20.0683C23.4225 17.0862 23.6267 14.0428 24.0557 10.9994C24.0965 10.6931 24.1782 10.4071 24.2803 10.1212C24.3825 9.8352 24.6071 9.69222 24.9135 9.71264C25.2199 9.73307 25.4242 9.89647 25.5059 10.1824C25.7101 10.9382 25.8327 11.7143 25.9144 12.4905C26.3024 16.4939 26.9152 20.4564 28.345 24.2351C28.8352 25.5423 29.4684 26.7883 31.082 26.9108C32.8181 27.0334 33.6964 25.8487 34.4113 24.5006C35.1671 23.0504 35.596 21.4572 36.0862 19.9049C36.1475 19.6802 36.2088 19.4351 36.3109 19.2309C36.4539 18.9449 36.6377 18.6794 37.0053 18.7611C37.4138 18.8428 37.4343 19.1696 37.4138 19.476C37.3526 20.3338 37.3117 21.1713 37.2096 22.0087C37.0462 23.2547 36.8828 24.5006 36.9849 25.767C37.0666 26.8495 37.1075 28.0138 38.333 28.504C39.2726 28.8716 40.396 28.3406 41.2742 27.1355C42.6427 25.2972 43.6436 23.2547 44.7261 21.253C44.9917 20.7832 45.2368 20.293 45.5023 19.8232C45.727 19.4351 45.9925 18.9653 46.5236 19.2309C46.9729 19.4555 46.7891 19.9866 46.687 20.3338C46.4214 21.253 46.0742 22.1313 45.7474 23.03C44.0317 27.83 42.2955 32.6095 40.5798 37.4095C39.9874 39.0435 39.7015 39.1252 38.0675 38.4511C32.6139 36.2044 26.9356 35.5099 21.0735 36.1227C17.5808 36.4903 14.1698 37.2256 10.963 38.778C10.1868 39.166 9.71704 38.778 9.45151 38.0631C8.69577 36.0205 7.94004 33.978 7.20472 31.9355C5.87707 28.2589 4.56985 24.5823 3.26263 20.9057C3.05838 20.3338 2.54774 19.5372 3.3239 19.2104C4.03879 18.9041 4.28389 19.8028 4.54942 20.3134C5.63197 22.3968 6.75536 24.4598 8.00131 26.441C8.12386 26.6453 8.26684 26.8291 8.40982 27.0334C9.28811 28.2385 10.4728 28.8512 11.4123 28.504C12.6991 28.0138 12.6991 26.8087 12.8217 25.6853C12.8421 25.481 12.8217 25.2768 12.8217 25.0725C12.8217 25.0521 12.8217 25.0521 12.8421 25.0521Z" fill="#737380"/>
<path d="M39.0885 41.7805C39.068 42.9039 38.394 43.3737 37.3523 42.9856C29.9992 40.3099 22.5643 40.0239 15.0069 42.0461C14.0265 42.3116 13.0665 42.6384 12.1065 43.0265C11.3508 43.3329 10.8606 43.1899 10.5542 42.4341C10.2274 41.6988 10.3295 41.1678 11.1465 40.7797C14.6801 39.1661 18.3976 38.2878 22.258 38.0223C27.7932 37.6342 33.1651 38.492 38.2714 40.7593C38.7617 40.9635 39.1089 41.2086 39.0885 41.7805Z" fill="#737380"/>
<path d="M26.6716 7.01651C26.6716 7.91523 25.8137 8.77309 24.915 8.79352C23.9346 8.81394 23.0971 7.95608 23.1176 6.97566C23.1176 5.99524 23.8733 5.25993 24.8741 5.2395C25.8954 5.2395 26.6716 5.99524 26.6716 7.01651Z" fill="#737380"/>
<path d="M12.1691 14.9007C12.9657 14.9007 13.5989 15.5135 13.5785 16.3101C13.558 17.0658 12.884 17.7603 12.1487 17.7399C11.393 17.7399 10.7598 17.0862 10.7598 16.2897C10.7598 15.4726 11.3317 14.9007 12.1691 14.9007Z" fill="#737380"/>
<path d="M37.5359 17.699C36.7393 17.6785 36.1266 17.0249 36.147 16.2488C36.1674 15.493 36.7393 14.9211 37.5359 14.9211C38.3733 14.9007 38.9453 15.4726 38.9657 16.31C38.9657 17.1066 38.3733 17.699 37.5359 17.699Z" fill="#737380"/>
<path d="M2.20125 15.3501C2.99783 15.3297 3.67187 15.9629 3.69229 16.7186C3.69229 17.4335 2.99783 18.1688 2.26252 18.1892C1.54763 18.2096 0.914447 17.5765 0.873596 16.8411C0.85317 16.0037 1.40466 15.3705 2.20125 15.3501Z" fill="#737380"/>
<path d="M48.8737 16.7593C48.8737 17.4947 48.2609 18.1483 47.546 18.1687C46.8311 18.1891 46.055 17.4947 46.0141 16.8002C45.9937 16.0853 46.7086 15.3704 47.4439 15.3704C48.2813 15.35 48.8737 15.9219 48.8737 16.7593Z" fill="#737380"/>
</svg>

<svg width="49" height="49" fill="none" xmlns="http://www.w3.org/2000/svg"><path d="M12.842 25.052a441.766 441.766 0 0 1-.47-5.168c-.04-.408-.224-1 .348-1.123.633-.163.755.45.898.899.51 1.695.98 3.39 1.798 4.984a5.432 5.432 0 0 0 1.164 1.532c1.226 1.123 3.064.98 4.003-.389 1.185-1.715 1.553-3.737 2.063-5.719.776-2.982.98-6.025 1.41-9.069.04-.306.122-.592.224-.878.102-.286.327-.429.633-.408.307.02.511.183.593.47.204.755.327 1.531.408 2.308.388 4.003 1.001 7.965 2.431 11.744.49 1.307 1.123 2.553 2.737 2.676 1.736.122 2.614-1.062 3.33-2.41.755-1.45 1.184-3.044 1.674-4.596.062-.225.123-.47.225-.674.143-.286.327-.552.694-.47.409.082.43.409.409.715-.061.858-.102 1.695-.204 2.533-.164 1.246-.327 2.492-.225 3.758.082 1.082.123 2.247 1.348 2.737.94.368 2.063-.163 2.941-1.369 1.369-1.838 2.37-3.88 3.452-5.882.266-.47.51-.96.776-1.43.225-.388.49-.858 1.022-.592.449.224.265.756.163 1.103-.266.919-.613 1.797-.94 2.696-1.715 4.8-3.452 9.58-5.167 14.38-.593 1.634-.878 1.715-2.512 1.041-5.454-2.247-11.132-2.941-16.994-2.328-3.493.367-6.904 1.103-10.111 2.655-.776.388-1.246 0-1.511-.715-.756-2.043-1.512-4.085-2.247-6.128a2377.159 2377.159 0 0 1-3.942-11.03c-.205-.571-.715-1.368.06-1.695.716-.306.96.593 1.226 1.103 1.083 2.084 2.206 4.147 3.452 6.128.123.204.266.388.409.592.878 1.205 2.063 1.818 3.002 1.471 1.287-.49 1.287-1.695 1.41-2.819.02-.204 0-.408 0-.612 0-.02 0-.02.02-.02Z" fill="#737380"/><path d="M39.089 41.78c-.021 1.124-.695 1.594-1.737 1.206-7.353-2.676-14.788-2.962-22.345-.94-.98.266-1.94.592-2.9.98-.756.307-1.246.164-1.553-.592-.327-.735-.225-1.266.592-1.654 3.534-1.614 7.252-2.492 11.112-2.758 5.535-.388 10.907.47 16.013 2.737.49.205.838.45.818 1.022ZM26.672 7.017c0 .898-.858 1.756-1.757 1.777-.98.02-1.818-.838-1.797-1.818 0-.98.755-1.716 1.756-1.737 1.021 0 1.798.756 1.798 1.778ZM12.17 14.9c.796 0 1.429.614 1.409 1.41-.021.756-.695 1.45-1.43 1.43-.756 0-1.39-.654-1.39-1.45 0-.817.573-1.39 1.41-1.39ZM37.536 17.699a1.417 1.417 0 0 1-1.389-1.45c.02-.756.592-1.328 1.389-1.328.837-.02 1.41.552 1.43 1.389 0 .797-.593 1.389-1.43 1.389ZM2.201 15.35c.797-.02 1.47.613 1.491 1.369 0 .714-.694 1.45-1.43 1.47-.714.02-1.348-.613-1.388-1.348-.02-.837.53-1.47 1.327-1.49ZM48.874 16.76c0 .735-.613 1.388-1.328 1.409-.715.02-1.491-.674-1.532-1.369-.02-.715.695-1.43 1.43-1.43.837-.02 1.43.552 1.43 1.39Z" fill="#737380"/></svg>
